build/service/StructureOutline.svg

<svg xmlns="http://www.w3.org/2000/svg" fill="none" viewBox="0 0 24 24" focusable="false"><path d="M0 0H24V24H0z"/><path fill="#74767B" fill-rule="evenodd" d="M12.65 8.92939C13.9944 8.63243 15 7.43366 15 6C15 4.34315 13.6569 3 12 3C10.3431 3 9 4.34315 9 6C9 7.43366 10.0056 8.63243 11.35 8.92939L11.35 11.35L9.0001 11.35C6.98426 11.35 5.3501 12.9842 5.3501 15L5.3501 15.0706C4.00569 15.3675 3 16.5663 3 18C3 19.6569 4.34315 21 6 21C7.65685 21 9 19.6569 9 18C9 16.5664 7.9944 15.3676 6.6501 15.0706L6.6501 15C6.6501 13.7021 7.70223 12.65 9.0001 12.65L15.0001 12.65C16.298 12.65 17.3501 13.7021 17.3501 15L17.3501 15.0706C16.0057 15.3675 15 16.5663 15 18C15 19.6569 16.3431 21 18 21C19.6569 21 21 19.6569 21 18C21 16.5664 19.9944 15.3676 18.6501 15.0706L18.6501 15C18.6501 12.9842 17.0159 11.35 15.0001 11.35L12.65 11.35L12.65 8.92939ZM12 7.7C12.9389 7.7 13.7 6.93888 13.7 6C13.7 5.06112 12.9389 4.3 12 4.3C11.0611 4.3 10.3 5.06112 10.3 6C10.3 6.93888 11.0611 7.7 12 7.7ZM7.7 18C7.7 18.9389 6.93888 19.7 6 19.7C5.06112 19.7 4.3 18.9389 4.3 18C4.3 17.0611 5.06112 16.3 6 16.3C6.93888 16.3 7.7 17.0611 7.7 18ZM19.7 18C19.7 18.9389 18.9389 19.7 18 19.7C17.0611 19.7 16.3 18.9389 16.3 18C16.3 17.0611 17.0611 16.3 18 16.3C18.9389 16.3 19.7 17.0611 19.7 18Z"/></svg>

<svg xmlns="http://www.w3.org/2000/svg" fill="none" viewBox="0 0 24 24" focusable="false"><path fill="#74767B" fill-rule="evenodd" d="M12.64 8.92A2.99 2.99 0 0 0 15 6c0-1.66-1.35-3-3-3-1.66 0-3 1.34-3 3 0 1.43 1 2.63 2.35 2.92v2.43H9c-2.02 0-3.65 1.63-3.65 3.65v.07A2.985 2.985 0 0 0 3 18c0 1.65 1.34 3 3 3 1.65 0 3-1.35 3-3 0-1.44-1.01-2.64-2.36-2.93V15c0-1.3 1.06-2.35 2.36-2.35h6c1.29 0 2.35 1.05 2.35 2.35v.07A2.985 2.985 0 0 0 15 18c0 1.65 1.34 3 3 3 1.65 0 3-1.35 3-3 0-1.44-1.01-2.64-2.36-2.93V15c0-2.02-1.63-3.65-3.64-3.65h-2.36zM12 7.7c.93 0 1.7-.77 1.7-1.7 0-.94-.77-1.71-1.7-1.71-.94 0-1.71.77-1.71 1.71 0 .93.77 1.7 1.71 1.7M7.7 18c0 .93-.77 1.7-1.7 1.7-.94 0-1.71-.77-1.71-1.7 0-.94.77-1.71 1.71-1.71.93 0 1.7.77 1.7 1.71m12 0c0 .93-.77 1.7-1.7 1.7-.94 0-1.71-.77-1.71-1.7 0-.94.77-1.71 1.71-1.71.93 0 1.7.77 1.7 1.71"/></svg>
